icons/arrow-small-up.svg

<svg xmlns="http://www.w3.org/2000/svg" width="24" height="24" viewBox="0 0 24 24">
  <path d="M12,5 L12.0181458,5.001 L12.0590314,5.0017331 C12.0690273,5.00232059 12.0790162,5.00305744 12.0889942,5.00394365 L12,5 C12.0506203,5 12.1003621,5.00376119 12.1489612,5.01101934 C12.1661068,5.01365592 12.1834538,5.01671819 12.2007258,5.02024007 C12.2227461,5.0246398 12.2444365,5.02983363 12.2658396,5.03572097 C12.2814633,5.04009773 12.2968513,5.04472872 12.3121425,5.04973809 C12.3317977,5.05612249 12.3515792,5.06331574 12.3710585,5.07110396 C12.3887956,5.07819642 12.4060985,5.08567905 12.4232215,5.09367336 C12.4419547,5.10247102 12.4604898,5.11185933 12.4786822,5.12179647 C12.4935488,5.12981337 12.5087703,5.13863517 12.5238,5.14789148 C12.5456983,5.16150681 12.5664533,5.17541687 12.5866395,5.19006311 C12.5953343,5.19627953 12.6041603,5.2029095 12.6128994,5.20970461 C12.6197272,5.21512226 12.6225945,5.21739784 12.625449,5.21968877 L12.7071068,5.29289322 L18.363961,10.9497475 C18.7544853,11.3402718 18.7544853,11.9734367 18.363961,12.363961 C18.0034771,12.724445 17.436246,12.7521745 17.0439548,12.4471496 L16.9497475,12.363961 L12.9991458,8.414 L13,18 C13,18.5522847 12.5522847,19 12,19 C11.4871642,19 11.0644928,18.6139598 11.0067277,18.1166211 L11,18 L10.9991458,8.414 L7.05025253,12.363961 C6.65972824,12.7544853 6.02656326,12.7544853 5.63603897,12.363961 C5.27555501,12.0034771 5.24782547,11.436246 5.55285036,11.0439548 L5.63603897,10.9497475 L11.2928932,5.29289322 L11.374551,5.21968877 C11.3758339,5.21865914 11.3771194,5.21763261 11.3784075,5.21660919 L11.2928932,5.29289322 C11.332358,5.25342847 11.3743006,5.21795187 11.4182204,5.1864634 C11.4377852,5.17252629 11.4583066,5.15891923 11.4793398,5.14606743 C11.4928304,5.13772719 11.5064305,5.12986112 11.5201698,5.12234168 C11.5371537,5.1131069 11.5549095,5.1040443 11.5729619,5.09550623 C11.5932325,5.08591191 11.613165,5.07731015 11.6333026,5.06938695 C11.6508514,5.06244532 11.6689468,5.0559003 11.6872762,5.04987089 C11.7025958,5.04489522 11.7182588,5.04017413 11.734007,5.03584514 C11.7555635,5.02983363 11.7772539,5.0246398 11.7992059,5.02016515 C11.8166247,5.01670217 11.834051,5.01362808 11.8515331,5.0110178 C11.8705796,5.00810098 11.8903051,5.00574796 11.9101982,5.00397748 C11.9208131,5.00307004 11.9308872,5.00232561 11.9409686,5.0017331 L11.9806591,5.0001833 C11.9870914,5.00006128 11.9935385,5 12,5 Z"/>
</svg>

<svg xmlns="http://www.w3.org/2000/svg" viewBox="0 0 24 24">
  <path d="M12 5h.06a1 1 0 0 1 .03 0H12a1 1 0 0 1 .63.22l.08.07 5.65 5.66a1 1 0 0 1-1.32 1.5l-.09-.09L13 8.41V18a1 1 0 0 1-2 .12V8.4l-3.95 3.95a1 1 0 0 1-1.5-1.32l.09-.09 5.65-5.66.08-.07-.08.07a1 1 0 0 1 .65-.29H12z"/>
</svg>
